flaticon/essential/calculator-1.svg

<svg xmlns="http://www.w3.org/2000/svg" width="32" height="32" viewBox="0 0 24 24">
    <path d="M 20.234375 0 L 3.765625 0 C 3.121094 0 2.601562 0.523438 2.601562 1.164062 L 2.601562 22.835938 C 2.601562 23.476562 3.121094 24 3.765625 24 L 20.234375 24 C 20.878906 24 21.398438 23.476562 21.398438 22.835938 L 21.398438 1.164062 C 21.398438 0.523438 20.878906 0 20.234375 0 Z M 20.601562 22.835938 C 20.601562 23.035156 20.4375 23.199219 20.234375 23.199219 L 3.765625 23.199219 C 3.5625 23.199219 3.398438 23.035156 3.398438 22.835938 L 3.398438 1.164062 C 3.398438 0.964844 3.5625 0.800781 3.765625 0.800781 L 20.234375 0.800781 C 20.4375 0.800781 20.601562 0.964844 20.601562 1.164062 Z M 20.601562 22.835938"/>
    <path d="M4.601562 22L9 22 9 17.601562 4.601562 17.601562zM5.398438 18.398438L8.199219 18.398438 8.199219 21.199219 5.398438 21.199219zM9.800781 22L14.199219 22 14.199219 17.601562 9.800781 17.601562zM10.601562 18.398438L13.398438 18.398438 13.398438 21.199219 10.601562 21.199219zM15 22L19.398438 22 19.398438 12.398438 15 12.398438zM15.800781 13.199219L18.601562 13.199219 18.601562 21.199219 15.800781 21.199219zM4.601562 16.800781L9 16.800781 9 12.398438 4.601562 12.398438zM5.398438 13.199219L8.199219 13.199219 8.199219 16 5.398438 16zM9.800781 16.800781L14.199219 16.800781 14.199219 12.398438 9.800781 12.398438zM10.601562 13.199219L13.398438 13.199219 13.398438 16 10.601562 16zM4.601562 11.601562L9 11.601562 9 7.199219 4.601562 7.199219zM5.398438 8L8.199219 8 8.199219 10.800781 5.398438 10.800781zM9.800781 11.601562L14.199219 11.601562 14.199219 7.199219 9.800781 7.199219zM10.601562 8L13.398438 8 13.398438 10.800781 10.601562 10.800781zM15 11.601562L19.398438 11.601562 19.398438 7.199219 15 7.199219zM15.800781 8L18.601562 8 18.601562 10.800781 15.800781 10.800781zM4.601562 6L19.398438 6 19.398438 2 4.601562 2zM5.398438 2.800781L18.601562 2.800781 18.601562 5.199219 5.398438 5.199219zM5.398438 2.800781"/>
</svg>

<svg xmlns="http://www.w3.org/2000/svg" width="32" height="32" viewBox="0 0 24 24">
    <path d="M20.234 0H3.766C3.12 0 2.602.523 2.602 1.164v21.672c0 .64.52 1.164 1.164 1.164h16.468c.645 0 1.164-.523 1.164-1.164V1.164c0-.64-.52-1.164-1.164-1.164zm.368 22.836c0 .2-.165.363-.368.363H3.766a.366.366 0 0 1-.368-.363V1.164c0-.2.164-.363.368-.363h16.468c.203 0 .368.164.368.363zm0 0"/>
    <path d="M4.602 22H9v-4.398H4.602zm.796-3.602H8.2V21.2H5.4zm0 0M9.8 22h4.4v-4.398H9.8zm.802-3.602h2.796V21.2h-2.796zm0 0M15 22h4.398v-9.602H15zm.8-8.8h2.802v8H15.8zm0 0M4.602 16.8H9v-4.402H4.602zm.796-3.6H8.2V16H5.4zm0 0M9.8 16.8h4.4v-4.402H9.8zm.802-3.6h2.796V16h-2.796zm0 0M4.602 11.602H9V7.199H4.602zM5.398 8H8.2v2.8H5.4zm0 0M9.8 11.602h4.4V7.199H9.8zM10.603 8h2.796v2.8h-2.796zm0 0M15 11.602h4.398V7.199H15zM15.8 8h2.802v2.8H15.8zm0 0M4.602 6h14.796V2H4.602zm.796-3.2h13.204v2.4H5.398zm0 0"/>
</svg>
